static/pin.svg

<svg width="717" height="369" viewBox="0 0 717 369" fill="none" xmlns="http://www.w3.org/2000/svg">
<path d="M695.107 264.307L20.5872 73.1433L20.9821 82.1536L29.1247 81.7966C29.1247 81.7966 15.3871 110.926 76.5721 182.315C137.757 253.704 462.5 325.5 462.5 325.5C462.5 325.5 538.5 357 604.173 338.493C669.846 319.987 641.5 282.5 641.5 282.5L695.107 264.307Z" fill="url(#paint0_linear_319_13)" fill-opacity="0.52"/>
<path fill-rule="evenodd" clip-rule="evenodd" d="M152.642 96.81C157.477 82.5163 149.808 67.01 135.515 62.1757L44.9313 31.539C30.6376 26.7047 15.1313 34.3729 10.297 48.6666L10.1682 49.0472L152.514 97.1906L152.642 96.81Z" fill="#E39B68"/>
<path d="M10.0395 49.4278C5.20515 63.7215 12.8735 79.2278 27.1671 84.0621L117.75 114.699C132.044 119.533 147.55 111.865 152.385 97.5712L152.514 97.1906L10.1682 49.0472L10.0395 49.4278Z" fill="url(#paint1_linear_319_13)"/>
<path d="M90.119 57.0939C98.3125 32.6926 124.736 19.5536 149.137 27.7471L581.058 172.778C605.46 180.971 618.599 207.395 610.405 231.796L604.01 250.84L83.7244 76.1381L90.119 57.0939Z" fill="#FFEFD3"/>
<path d="M597.616 269.884C589.422 294.286 562.999 307.425 538.598 299.231L106.677 154.2C82.2752 146.007 69.1362 119.583 77.3297 95.1822L83.7244 76.1381L604.01 250.84L597.616 269.884Z" fill="url(#paint2_linear_319_13)"/>
<path fill-rule="evenodd" clip-rule="evenodd" d="M562.869 238.762C567.435 224.381 582.795 216.423 597.177 220.989L688.318 249.923C702.7 254.489 710.657 269.849 706.091 284.231L705.97 284.614L562.748 239.145L562.869 238.762Z" fill="#E39B68"/>
<path d="M705.848 284.997C701.283 299.378 685.923 307.336 671.541 302.77L580.4 273.836C566.018 269.27 558.06 253.91 562.626 239.528L562.748 239.145L705.97 284.614L705.848 284.997Z" fill="url(#paint3_linear_319_13)"/>
<defs>
<linearGradient id="paint0_linear_319_13" x1="439" y1="187.5" x2="360" y2="338.5" gradientUnits="userSpaceOnUse">
<stop stop-color="#542516"/>
<stop offset="1" stop-color="#8F6455"/>
</linearGradient>
<linearGradient id="paint1_linear_319_13" x1="113.376" y1="82.6839" x2="9.66437" y2="93.7146" gradientUnits="userSpaceOnUse">
<stop stop-color="#E39B68"/>
<stop offset="1" stop-color="#BC6F39"/>
</linearGradient>
<linearGradient id="paint2_linear_319_13" x1="375.914" y1="255.074" x2="231.849" y2="58.0213" gradientUnits="userSpaceOnUse">
<stop stop-color="#FFDEC1"/>
<stop offset="1" stop-color="#FFEFD3"/>
</linearGradient>
<linearGradient id="paint3_linear_319_13" x1="602.878" y1="250.623" x2="679.933" y2="320.911" gradientUnits="userSpaceOnUse">
<stop stop-color="#E39B68"/>
<stop offset="1" stop-color="#BC6F39"/>
</linearGradient>
</defs>
</svg>

<svg xmlns="http://www.w3.org/2000/svg" width="717" height="369" fill="none"><path fill="url(#a)" fill-opacity=".52" d="M695.107 264.307 20.587 73.143l.395 9.01 8.143-.356s-13.738 29.129 47.447 100.518S462.5 325.5 462.5 325.5s76 31.5 141.673 12.993S641.5 282.5 641.5 282.5z"/><path fill="#E39B68" fill-rule="evenodd" d="M152.642 96.81c4.835-14.294-2.834-29.8-17.127-34.634L44.931 31.539c-14.293-4.834-29.8 2.834-34.634 17.128l-.129.38 142.346 48.144z" clip-rule="evenodd"/><path fill="url(#b)" d="M10.04 49.428c-4.835 14.294 2.834 29.8 17.127 34.634L117.75 114.7c14.294 4.834 29.8-2.834 34.635-17.128l.129-.38L10.168 49.047z"/><path fill="#FFEFD3" d="M90.119 57.094c8.194-24.401 34.617-37.54 59.018-29.347l431.921 145.031c24.402 8.193 37.541 34.617 29.347 59.018l-6.395 19.044L83.724 76.138z"/><path fill="url(#c)" d="M597.616 269.884c-8.194 24.402-34.617 37.541-59.018 29.347L106.677 154.2c-24.402-8.193-37.54-34.617-29.347-59.018l6.394-19.044L604.01 250.84z"/><path fill="#E39B68" fill-rule="evenodd" d="M562.869 238.762c4.566-14.381 19.926-22.339 34.308-17.773l91.141 28.934c14.382 4.566 22.339 19.926 17.773 34.308l-.121.383-143.222-45.469z" clip-rule="evenodd"/><path fill="url(#d)" d="M705.848 284.997c-4.565 14.381-19.925 22.339-34.307 17.773L580.4 273.836c-14.382-4.566-22.34-19.926-17.774-34.308l.122-.383 143.222 45.469z"/><defs><linearGradient id="a" x1="439" x2="360" y1="187.5" y2="338.5" gradientUnits="userSpaceOnUse"><stop stop-color="#542516"/><stop offset="1" stop-color="#8F6455"/></linearGradient><linearGradient id="b" x1="113.376" x2="9.664" y1="82.684" y2="93.715" gradientUnits="userSpaceOnUse"><stop stop-color="#E39B68"/><stop offset="1" stop-color="#BC6F39"/></linearGradient><linearGradient id="c" x1="375.914" x2="231.849" y1="255.074" y2="58.021" gradientUnits="userSpaceOnUse"><stop stop-color="#FFDEC1"/><stop offset="1" stop-color="#FFEFD3"/></linearGradient><linearGradient id="d" x1="602.878" x2="679.933" y1="250.623" y2="320.911" gradientUnits="userSpaceOnUse"><stop stop-color="#E39B68"/><stop offset="1" stop-color="#BC6F39"/></linearGradient></defs></svg>
